src/images/landing/logos/7.svg

<svg width="160" height="50" viewBox="0 0 160 50" fill="none" xmlns="http://www.w3.org/2000/svg">
<g clip-path="url(#clip0)">
<path d="M35.6656 20.5246C36.9049 18.6885 38.9246 17.4262 41.1049 17.1508C43.9049 16.7147 46.9344 17.9311 48.6098 20.2262C47.9672 20.8229 47.3016 21.3967 46.659 21.9934C45.9016 20.9606 44.8918 20.0656 43.6525 19.7213C41.9312 19.2393 39.9115 19.6984 38.6492 20.9836C37.6852 21.9705 37.0426 23.3475 37.0885 24.7475C37.0426 26.2623 37.5934 27.8459 38.6951 28.9016C39.6131 29.8197 40.8754 30.4164 42.2066 30.4164C43.4918 30.4623 44.7541 29.9344 45.718 29.1311C46.223 28.718 46.5672 28.1672 46.9115 27.6393C47.6 28.1672 48.3115 28.6492 48.9541 29.2229C47.7607 31.059 45.8328 32.3672 43.6754 32.7803C40.2787 33.4688 36.5607 31.5869 35.0918 28.4656C33.8984 25.9639 34.082 22.8197 35.6656 20.5246Z" fill="white"/>
<path d="M40.5082 11.0459C41.4033 10.977 42.2984 11 43.1934 11.023C46.5213 11.2754 49.7344 12.8361 52.0525 15.2459C54.118 17.3574 55.4951 20.1574 55.8852 23.0951C56.3443 26.2623 55.6328 29.5672 53.9803 32.2754C51.7541 35.9705 47.7148 38.5639 43.4 38.9311C42.0459 39 40.6918 39.023 39.3607 38.7705C36.1246 38.1738 33.141 36.3607 31.0754 33.7902C29.3311 31.6328 28.2295 28.9475 28.023 26.1934C28 25.3902 28 24.5869 28.023 23.7836C28.2754 20.5246 29.7672 17.3803 32.0852 15.0852C34.3115 12.8361 37.341 11.3672 40.5082 11.0459ZM40.7148 12.6984C38.0066 12.9738 35.3672 14.1902 33.4164 16.0951C31.0525 18.3443 29.6295 21.6033 29.6295 24.8623C29.6066 27.1574 30.2492 29.4295 31.4197 31.3803C33.141 34.2262 36.0328 36.3377 39.2918 37.0492C41.8164 37.6 44.5016 37.3705 46.8885 36.3377C49.8721 35.0525 52.3279 32.5279 53.4984 29.4984C54.3475 27.341 54.5311 24.9541 54.118 22.682C53.4525 19.0098 50.9967 15.7049 47.6688 14.0066C45.5574 12.9049 43.1016 12.4689 40.7148 12.6984Z" fill="#EBA231"/>
<path d="M82.3017 16.0721C82.6459 16.0033 83.059 16.0033 83.3344 16.2557C83.8164 16.6 83.8853 17.3803 83.4951 17.8164C83.0131 18.3672 81.9574 18.2525 81.659 17.5639C81.3607 17.0131 81.7279 16.2557 82.3017 16.0721Z" fill="#EBA231"/>
<path d="M122.236 11.8951C122.741 11.8033 123.246 11.8033 123.751 11.8951C123.774 15.0623 123.728 18.2065 123.774 21.3738C124.21 21.0295 124.554 20.5475 125.036 20.2492C126.161 19.5147 127.584 19.4 128.869 19.6983C129.879 19.9279 130.751 20.6623 131.164 21.6033C131.531 22.4524 131.554 23.3934 131.554 24.2885C131.554 26.4688 131.554 28.6262 131.554 30.8065C131.003 30.8295 130.475 30.8524 129.925 30.7836C129.925 28.3967 129.925 26.0098 129.925 23.6229C129.879 22.8656 129.649 22.0393 129.03 21.5115C128.295 20.9147 127.285 20.8688 126.367 20.9836C125.587 21.0983 124.83 21.5574 124.416 22.2459C123.934 23.0492 123.843 24.0131 123.797 24.9311C123.774 26.882 123.82 28.8557 123.797 30.8065C123.292 30.8065 122.764 30.8295 122.259 30.8065C122.236 24.518 122.236 18.2065 122.236 11.8951Z" fill="#00BDFF"/>
<path d="M57.7672 22.6131C58.6852 20.9607 60.4525 19.7902 62.3344 19.6754C62.9771 19.6525 63.6426 19.6295 64.2852 19.7902C65.5705 20.0885 66.718 20.8 67.5672 21.8098C67.2 22.177 66.7869 22.5213 66.3967 22.8656C65.9377 22.4295 65.5246 21.9246 64.9508 21.6262C63.8492 20.9607 62.4721 20.9377 61.3016 21.4197C60.5213 21.718 59.8557 22.3148 59.3967 23.0262C58.1344 24.8852 58.5934 27.6852 60.3607 29.0623C61.141 29.682 62.1279 30.0492 63.1148 29.9803C64.5148 29.9344 65.8 29.1311 66.5803 27.9607C67.0394 28.1902 67.4525 28.5115 67.7967 28.9016C66.6951 30.3705 64.9738 31.4262 63.1148 31.4033C60.4984 31.541 57.859 29.682 57.2393 27.1115C56.8262 25.6197 56.9639 23.9672 57.7672 22.6131Z" fill="#00BDFF"/>
<path d="M113.698 19.6295C115.328 19.377 117.072 19.7902 118.357 20.8229C119.757 21.9016 120.675 23.6459 120.607 25.4361C120.675 27.0197 119.987 28.5803 118.839 29.659C117.715 30.8065 116.108 31.4492 114.502 31.4262C113.492 31.4951 112.551 31.059 111.61 30.7377C111.036 30.5541 110.531 30.2328 110.003 29.9574C110.003 31.6557 110.026 33.3541 110.003 35.0524C109.567 35.0754 109.108 35.0754 108.672 35.0524C108.672 30.1639 108.649 25.2754 108.672 20.3869C109.131 20.3639 109.59 20.3639 110.049 20.3869C110.072 20.5934 110.072 20.777 110.095 20.9836C111.197 20.2492 112.436 19.859 113.698 19.6295ZM114.134 21.0524C112.826 21.2131 111.633 22.0623 110.99 23.2098C110.416 24.2197 110.302 25.459 110.531 26.5836C110.967 28.4656 112.757 30.0492 114.731 29.8885C116.223 29.9803 117.577 29.0393 118.334 27.8229C119 26.6754 119.138 25.2524 118.725 23.9901C118.449 23.0262 117.761 22.2688 116.957 21.6951C116.131 21.1442 115.098 20.8918 114.134 21.0524Z" fill="#00BDFF"/>
<path d="M73.9705 19.7443C75.5311 19.5607 77.1836 20.0656 78.377 21.0754C79.4557 21.9705 80.2361 23.2787 80.4197 24.6787C80.4656 25.5279 80.5115 26.377 80.259 27.2033C79.8 28.7639 78.6295 30.0492 77.2066 30.7836C76.0361 31.3574 74.682 31.5639 73.3967 31.2885C71.882 30.9672 70.5049 30.0262 69.6557 28.741C68.6689 27.2033 68.4623 25.1836 69.1279 23.4623C69.8393 21.4197 71.8131 19.9279 73.9705 19.7443ZM73.6492 21.2361C72.5705 21.4656 71.6754 22.2229 71.0557 23.0951C70.4131 24.1049 70.2295 25.3672 70.482 26.5148C70.7574 27.8918 71.7443 29.1311 73.0525 29.6361C73.8098 29.9344 74.682 30.0492 75.4623 29.8426C76.9082 29.5443 78.1246 28.3967 78.5836 27.0197C78.8361 26.3311 78.8131 25.5967 78.7672 24.8623C78.5836 23.3705 77.5508 21.9934 76.1508 21.4197C75.3934 21.0984 74.4984 21.1443 73.6492 21.2361Z" fill="#00BDFF"/>
<path d="M88.2689 20.3639C89.3934 19.6524 90.8393 19.5147 92.1246 19.836C92.9738 20.0426 93.7311 20.6164 94.1672 21.3508C94.5574 22.0393 94.718 22.8426 94.6951 23.6459C94.6721 26.1016 94.718 28.5574 94.6721 31.0131C94.1672 31.0131 93.6623 31.0131 93.1574 31.0131C93.1115 28.6721 93.1574 26.3311 93.1344 23.9901C93.0885 23.118 92.882 22.1311 92.1246 21.5803C91.3213 21.0295 90.2656 21.0065 89.3475 21.2131C88.4984 21.3967 87.7639 22.0164 87.4426 22.8197C87.1902 23.4393 87.0754 24.1049 87.0295 24.7475C87.0295 26.8131 87.0295 28.8787 87.0295 30.9442C86.5246 30.9672 85.9967 30.9672 85.4918 30.9442C85.4918 27.318 85.4918 23.7147 85.4918 20.0885C85.9738 20.0656 86.4557 20.0656 86.9377 20.0885C86.9607 20.5934 86.9377 21.0754 86.9607 21.5803C87.3967 21.1901 87.741 20.6852 88.2689 20.3639Z" fill="#00BDFF"/>
<path d="M99.2393 19.7213C100.318 19.5606 101.511 19.6754 102.429 20.318C102.98 20.7082 103.485 21.259 103.646 21.9475C103.233 22.177 102.82 22.4524 102.384 22.6361C102.361 22.6361 102.292 22.6131 102.269 22.6131C102.039 22.2918 101.879 21.9016 101.557 21.6492C100.961 21.1902 100.134 21.0065 99.4 21.1902C98.6885 21.3738 98.0689 22.0393 98.1607 22.7967C98.1836 23.4393 98.6885 23.9213 99.2164 24.1738C100.479 24.7934 101.97 25 103.003 25.9869C103.761 26.7213 103.807 27.8459 103.715 28.8328C103.577 29.8656 102.797 30.6918 101.879 31.1049C100.961 31.518 99.9279 31.5639 98.9639 31.4492C97.6328 31.2656 96.3705 30.3705 95.9574 29.0623C96.4393 28.8098 96.8754 28.3967 97.4033 28.3049C97.6787 28.6721 97.8623 29.1311 98.2525 29.4295C99.0328 30.0721 100.18 30.2557 101.098 29.8656C101.649 29.659 102.062 29.1541 102.154 28.5574C102.269 27.9606 101.925 27.4098 101.489 27.0656C100.593 26.2852 99.377 26.0787 98.3443 25.5049C97.518 25.0688 96.6918 24.4033 96.5082 23.4393C96.4393 22.8426 96.4393 22.2 96.6918 21.6262C97.1508 20.5934 98.1607 19.9049 99.2393 19.7213Z" fill="#00BDFF"/>
<path d="M81.8656 20.1115C82.3934 20.0885 82.8984 20.0885 83.4262 20.1115C83.4492 23.4623 83.4262 26.7902 83.4262 30.141C83.4262 30.4393 83.4262 30.7377 83.4033 31.0361C82.8984 31.0361 82.3705 31.0361 81.8656 31.0361C81.8197 27.3869 81.8656 23.7377 81.8656 20.1115Z" fill="#00BDFF"/>
<path d="M106.033 28.8328C106.446 28.6492 106.974 28.718 107.272 29.0623C107.777 29.5213 107.662 30.4393 107.089 30.7836C106.446 31.2656 105.367 30.7147 105.39 29.9115C105.344 29.4524 105.643 29.0393 106.033 28.8328Z" fill="#00BDFF"/>
<path d="M40.7148 12.6984C43.1016 12.4688 45.5574 12.9049 47.6688 14.0295C50.9967 15.7279 53.4525 19.0098 54.118 22.7049C54.5311 24.977 54.3475 27.3639 53.4984 29.5213C52.3279 32.5508 49.8721 35.0754 46.8885 36.3606C44.5246 37.3934 41.8164 37.6229 39.2918 37.0721C36.0328 36.3606 33.118 34.2721 31.4197 31.4033C30.2492 29.4295 29.6066 27.1574 29.6525 24.8852C29.6525 21.6033 31.0525 18.3672 33.4393 16.118C35.3902 14.1902 38.0066 12.9967 40.7148 12.6984ZM35.6656 20.5246C34.082 22.8197 33.8984 25.941 35.1148 28.4426C36.5836 31.5639 40.3016 33.4459 43.6984 32.7574C45.8328 32.3672 47.7836 31.0361 48.977 29.2C48.3344 28.6262 47.6229 28.1443 46.9344 27.6164C46.5902 28.1443 46.2229 28.6951 45.741 29.1082C44.777 29.9344 43.5148 30.4393 42.2295 30.3934C40.9213 30.4164 39.6361 29.7967 38.718 28.8787C37.6164 27.8 37.0656 26.2393 37.1115 24.7246C37.0656 23.3246 37.6852 21.9475 38.6721 20.9606C39.9344 19.6754 41.9541 19.2164 43.6754 19.6984C44.9377 20.0426 45.9246 20.9377 46.682 21.9705C47.3246 21.3738 47.9902 20.8 48.6328 20.2033C46.9574 17.8852 43.9279 16.6918 41.1279 17.1279C38.9246 17.4262 36.9049 18.7115 35.6656 20.5246Z" fill="#1B5CC4"/>
</g>
<defs>
<clipPath id="clip0">
<rect x="28" y="11" width="103.531" height="28" fill="white"/>
</clipPath>
</defs>
</svg>

<svg width="160" height="50" fill="none" xmlns="http://www.w3.org/2000/svg"><g clip-path="url(#clip0)"><path d="M35.666 20.525c1.239-1.836 3.259-3.099 5.439-3.374 2.8-.436 5.83.78 7.505 3.075-.643.597-1.308 1.17-1.951 1.767-.757-1.032-1.767-1.927-3.006-2.272-1.722-.482-3.742-.023-5.004 1.263-.964.986-1.606 2.363-1.56 3.763-.046 1.515.504 3.099 1.606 4.155.918.918 2.18 1.514 3.512 1.514 1.285.046 2.547-.482 3.511-1.285.505-.413.85-.964 1.193-1.492.689.528 1.4 1.01 2.043 1.584a8.18 8.18 0 01-5.279 3.557c-3.396.689-7.114-1.193-8.583-4.314-1.194-2.502-1.01-5.646.574-7.941z" fill="#fff"/><path d="M40.508 11.046c.895-.069 1.79-.046 2.685-.023 3.328.252 6.541 1.813 8.86 4.223a13.965 13.965 0 013.832 7.85c.46 3.166-.252 6.471-1.905 9.18-2.226 3.694-6.265 6.288-10.58 6.655-1.354.069-2.708.092-4.04-.16-3.235-.597-6.219-2.41-8.285-4.98-1.744-2.158-2.845-4.843-3.052-7.598a42.09 42.09 0 010-2.41c.252-3.258 1.744-6.403 4.062-8.698 2.227-2.249 5.256-3.718 8.423-4.04zm.207 1.652c-2.708.276-5.348 1.492-7.299 3.397-2.363 2.25-3.786 5.508-3.786 8.767a12.495 12.495 0 001.79 6.518c1.721 2.846 4.613 4.958 7.872 5.67 2.524.55 5.21.32 7.596-.712 2.984-1.285 5.44-3.81 6.61-6.84.85-2.157 1.033-4.544.62-6.816-.666-3.672-3.121-6.977-6.45-8.675-2.11-1.102-4.566-1.538-6.953-1.309zM82.302 16.072c.344-.069.757-.069 1.032.184.482.344.551 1.124.161 1.56-.482.551-1.538.437-1.836-.252-.298-.55.069-1.308.643-1.492z" fill="#EBA231"/><path d="M122.236 11.895a4.202 4.202 0 011.515 0c.023 3.167-.023 6.311.023 9.479.436-.345.78-.826 1.262-1.125 1.125-.734 2.548-.849 3.833-.55 1.01.229 1.882.963 2.295 1.904.367.85.39 1.79.39 2.685v6.518c-.551.023-1.079.046-1.629-.022v-7.161c-.046-.757-.276-1.584-.895-2.111-.735-.597-1.745-.643-2.663-.528-.78.114-1.537.573-1.951 1.262-.482.803-.573 1.767-.619 2.685-.023 1.951.023 3.925 0 5.875-.505 0-1.033.023-1.538 0-.023-6.288-.023-12.6-.023-18.91zM57.767 22.613c.918-1.652 2.685-2.823 4.567-2.938.643-.023 1.309-.046 1.951.115a6.088 6.088 0 013.282 2.02c-.367.367-.78.711-1.17 1.056-.46-.436-.872-.941-1.446-1.24-1.102-.665-2.479-.688-3.65-.206-.78.298-1.445.895-1.904 1.606-1.263 1.86-.804 4.66.964 6.036.78.62 1.767.987 2.754.918 1.4-.046 2.685-.849 3.465-2.02.46.23.873.552 1.217.942-1.102 1.468-2.823 2.524-4.682 2.501-2.617.138-5.256-1.721-5.876-4.291-.413-1.492-.275-3.145.528-4.499zM113.698 19.63c1.63-.253 3.374.16 4.659 1.193 1.4 1.079 2.318 2.823 2.25 4.613.068 1.584-.62 3.144-1.768 4.223-1.124 1.148-2.731 1.79-4.337 1.767-1.01.07-1.951-.367-2.892-.688-.574-.184-1.079-.505-1.607-.78 0 1.698.023 3.396 0 5.094-.436.023-.895.023-1.331 0 0-4.888-.023-9.777 0-14.665.459-.023.918-.023 1.377 0 .023.206.023.39.046.597 1.102-.735 2.341-1.125 3.603-1.355zm.436 1.422c-1.308.161-2.501 1.01-3.144 2.158-.574 1.01-.688 2.249-.459 3.374.436 1.882 2.226 3.465 4.2 3.305 1.492.091 2.846-.85 3.603-2.066a4.763 4.763 0 00.391-3.833c-.276-.964-.964-1.721-1.768-2.295-.826-.55-1.859-.803-2.823-.643zM73.97 19.744a5.89 5.89 0 014.407 1.331c1.079.896 1.86 2.204 2.043 3.604.046.849.091 1.698-.161 2.524-.459 1.56-1.63 2.846-3.052 3.58-1.17.574-2.525.78-3.81.505a6.05 6.05 0 01-3.741-2.547c-.987-1.538-1.194-3.557-.528-5.279.711-2.042 2.685-3.534 4.843-3.718zm-.32 1.492c-1.08.23-1.975.987-2.594 1.86-.643 1.009-.826 2.271-.574 3.419.275 1.377 1.262 2.616 2.57 3.121.758.298 1.63.413 2.41.207 1.446-.299 2.663-1.446 3.122-2.823.252-.689.23-1.423.183-2.158-.183-1.491-1.216-2.869-2.616-3.442-.758-.322-1.653-.276-2.502-.184zM88.269 20.364c1.124-.712 2.57-.85 3.856-.528.849.207 1.606.78 2.042 1.515.39.688.551 1.492.528 2.295-.023 2.456.023 4.911-.023 7.367h-1.515c-.045-2.34 0-4.682-.023-7.023-.046-.872-.252-1.859-1.01-2.41-.803-.55-1.858-.573-2.776-.367a2.696 2.696 0 00-1.905 1.607c-.253.62-.368 1.285-.413 1.927v6.197c-.505.023-1.033.023-1.538 0V20.09c.482-.023.964-.023 1.446 0 .023.504 0 .986.023 1.491.436-.39.78-.895 1.308-1.216zM99.24 19.721c1.078-.16 2.271-.046 3.189.597.551.39 1.056.941 1.217 1.63-.413.229-.826.504-1.262.688-.023 0-.092-.023-.115-.023-.23-.321-.39-.711-.712-.964a2.59 2.59 0 00-2.157-.459c-.712.184-1.331.85-1.24 1.607.024.642.529 1.124 1.056 1.377 1.263.62 2.754.826 3.787 1.813.758.734.804 1.859.712 2.846-.138 1.033-.918 1.859-1.836 2.272-.918.413-1.951.459-2.915.344-1.331-.183-2.593-1.079-3.007-2.387.482-.252.918-.665 1.446-.757.276.367.46.826.85 1.125.78.642 1.927.826 2.845.436a1.677 1.677 0 001.056-1.309c.115-.596-.229-1.147-.665-1.491-.896-.78-2.112-.987-3.145-1.561-.826-.436-1.652-1.102-1.836-2.066-.069-.596-.069-1.239.184-1.813.459-1.033 1.469-1.721 2.547-1.905zM81.866 20.111a17.657 17.657 0 011.56 0c.023 3.351 0 6.68 0 10.03 0 .298 0 .597-.023.895h-1.537c-.046-3.65 0-7.298 0-10.925zM106.033 28.833c.413-.184.941-.115 1.239.23.505.458.39 1.376-.183 1.72-.643.483-1.722-.068-1.699-.872-.046-.459.253-.872.643-1.078z" fill="#00BDFF"/><path d="M40.715 12.698c2.387-.23 4.842.207 6.954 1.332 3.328 1.698 5.784 4.98 6.449 8.675.413 2.272.23 4.659-.62 6.816-1.17 3.03-3.626 5.554-6.61 6.84-2.363 1.032-5.072 1.262-7.596.711-3.26-.711-6.174-2.8-7.872-5.669-1.17-1.973-1.813-4.246-1.768-6.518 0-3.282 1.4-6.518 3.787-8.767 1.951-1.928 4.568-3.121 7.276-3.42zm-5.05 7.827c-1.583 2.295-1.767 5.416-.55 7.918 1.469 3.12 5.187 5.003 8.583 4.314 2.135-.39 4.086-1.72 5.279-3.557-.643-.574-1.354-1.056-2.043-1.584-.344.528-.711 1.08-1.193 1.492-.964.826-2.226 1.331-3.511 1.285-1.309.023-2.594-.596-3.512-1.514-1.102-1.079-1.652-2.64-1.607-4.154-.045-1.4.574-2.777 1.561-3.764 1.262-1.286 3.282-1.745 5.003-1.263 1.263.345 2.25 1.24 3.007 2.273.643-.597 1.308-1.171 1.95-1.768-1.675-2.318-4.704-3.511-7.504-3.075-2.203.298-4.223 1.584-5.462 3.397z" fill="#1B5CC4"/></g><defs><clipPath id="clip0"><path fill="#fff" d="M28 11h103.531v28H28z"/></clipPath></defs></svg>
